X: 183
T:The Duck
M:6/8
R:jig
F:http://blackrosetheband.googlepages.com/ABCTUNES.ABC May 2009
C:Composer: Donald MacLeod
S:Source: The Angus Sessions Podcast
K:D
d|:def e2d|def e2d|def e2d|eff A2d|
def e2d|def e2d|fed B2A|1 Bdd A2d:|2 Bdd A2a||
|:f2e fdd|d2e fdd|dde fdd|faa A2a|
f2e fdd|d2e fag|f2e B2A|1 Bdd A2a:|2 Bdd A2c||
|:cef e2c|cef e2c|cef e2c|eff A2c|
cef e2c|cef e2c|fec B2A|1 Bcc A2c:|2 Bcc A2a||
|:f2e faa|f2e faa|f2e faa|fea A2a|
f2e faa|f2e faf|fec B2A|1 Bcc A2a:|2 Bcc A2d||

